X:1
T:Theniel Menzie's Bony Mary
M:2/4
L:1/16
K:D
 z4 z2 z B| A F3 F3 E| F3 E F3 B| A F3 F3 D| E3 DE B z B| A F3 E3 D|\
 d3 e f3 e| d3 B A3 F| E3 DE B3| A3 F d3 A| B3 A d3 B| A3 F d3 A| B3 AB d3|\
 A F3 E3 D| d3 e f3 e| d B3 d3 F| E3 DE B2 z|
